!!!OTL: Longshan gaolai xishan di
!!!ARE: Asia, China,ÿJiangsu, Wuxi
!! III, 503
!!!SCT: C1589
!!!YEM: Copyright 1995, estate of Helmut Schaffrath.
**kern
*ICvox
*Ivox
!! Mixed meters:  2/4; 3/4
*M3/4
*k[]
*C:
{12d
12ee
12ee
8ee
8dd
=1
2cc
=2
12dd
12ee
12ee
4ee
[4dd
=3
*M2/4
4.dd]
16cc
16a}
=4
{12dd
12gg
12ee
16ee
16dd
16dd
16b
=5
2g
=6
4a
8dd
8b
=7
8b
4a
16g
16e}
=8
{12dd
12dd
12dd
8b
8dd
=9
4a
8a
8g
=10
4a
4r}
=11
{12dd
12dd
12dd
16dd
16dd
16b
16a
=12
2g
=13
*M3/4
2a
16a
16b
16dd
16ee
=14
*M2/4
8b
4a
16g
16e}
=15
{8dd
8ee
8ee
8ee
=16
*M3/4
8dd
8ee
8ee
4dd
16cc
16a}
=17
*M2/4
{8dd
8ee
16dd
16b
8a
=18
2g
=19
4a
16dd
16b
8a
=20
8b
4a
16g
16e}
=21
{8a
8b
8a
8b
=22
16b
8.a
8b
8g
=23
8a
8r
4r}
=24
{16a
16dd
16dd
16dd
16dd
16dd
16b
16a
=25
2g
=26
*M3/4
4a
8dd
8b
16a
16b
16dd
16ee
=27
8b
4a
16g
16e}
==
!!!AGN: Shange, Dui shange
!!!AMT: irregular
!!!AIN: vox
!!!EED: Helmut Schaffrath
!!!EEV: 1.0
*-
!!!ONB: Tied note syntax fixed by Craig Sapp, 2004/05/03/
